X: 6415
T: Castle, The
R: jig
M: 6/8
K: Adorian
|:B|c2 A BAG|AGE DB,G,|~A,3 EDB,|DEG AGE|
c2 A B/c/dB|AGE DB,G,|~A,3 EDB,|DBG A2:|
|:B|cBA a^ga|bag edB|GBd gfg|GB/c/d cBA|
cdc d^cd|ede gab|age dBG|E>FG A2:|

